X:255
T: WOHL AUF NOCH GETRUNKEN
N: F0447
O: Europa, Mitteleuropa, Deutschland
R: Heimat -, Wander -, Abschieds - Lied
M: 2/4
L: 1/16
K: Bb
B2 | B2F2F2d2 | d2B2B2
f2 | f2e2d2c2 | B4z2
d2 | c4A2d2 | c4A2
f2 | c2A2B2G2 | F4z2
F2 | F2e2e2d2 | d2c2c2
c2 | d2f2e2d2 | c4z2
c2 | d2c2B2A2 | G2g2f2
e2 | d4c3c | B4z2

